X: 1
T: Gladstone, The
C: J. Scott Skinner
M: 4/4
L: 1/8
D: Michelle OBrien, Aogan Lynch, &amp; Gavin Ralston
K: A
| cAdA efga | A/A/A cA BG E/E/E | EAcd efga | ecdB Afed |
| ~c3d efga | A/A/A cA B~E3 | EAcd efga | ecdB Aefg ||
| afba geag | fdaf eAce | d~B3 ceAc | ~B3c defg |
| aA A/A/A eAce | aAge fece | d/d/d fd ceaf | ecdB Afed ||
